X:0573
M:C|
L:1/8
Q:1/2=104
K:D
defd gfed|cABc     d/c/d/e/ dA|defd gfed|cABc d2d2::
defd BcdB|ABAG     G2       F2|defd BcdB|AGFE D2D2:|

